X: 365
T: I Wish That I Could Go With You   #2
R: waltz, air
%S: s:2 b:17(8+9)
B: O'Neill's 1850 #365
O: F.O'Neill.
Z: Chris Falt, cfalt@trytel.com
Q: "With Feeling."
N: Compacted via repeats and multiple endings [JC]
N: Compacted by using labels and play order [JC]
P: Play ABBA
M: 3/4
L: 1/4
K: D
F/G/\
"^A"[| (A2g) | (f2d) | (e2A) | (B2{cB}A/G/) | (F2A) | d2d | d3- | "^fine"d2 |] e |
"^B"|: (f2e) | (f2g) | (a2f) | (g2e/d/) | (c2A) | (B2G) | A3- |1 A de :|2 AF"^->A"G |]
